assets/images/skills/nodejs.svg

<svg fill="#ffffff" xmlns="http://www.w3.org/2000/svg"  viewBox="0 0 32 32" width="64px" height="64px"><path d="M 21.300781 6 C 21.143781 6 21 6.1257812 21 6.3007812 L 21 11.796875 L 19.753906 11.070312 C 19.675906 11.024313 19.588 11.001953 19.5 11.001953 C 19.412 11.001953 19.324094 11.024312 19.246094 11.070312 L 16.251953 12.816406 C 16.095953 12.906406 16 13.072953 16 13.251953 L 16 16.748047 C 16 16.928047 16.095953 17.093594 16.251953 17.183594 L 19.246094 18.929688 C 19.324094 18.975687 19.412 18.998047 19.5 18.998047 C 19.588 18.998047 19.675906 18.975688 19.753906 18.929688 L 22.748047 17.183594 C 22.904047 17.093594 23 16.927047 23 16.748047 L 23 15 L 23 13.251953 L 23 7.2304688 C 23 7.0524688 22.904953 6.8888281 22.751953 6.7988281 L 21.449219 6.0410156 C 21.400219 6.0130156 21.350781 6 21.300781 6 z M 11.5 11.001953 C 11.41225 11.001953 11.324594 11.024813 11.246094 11.070312 L 8.2519531 12.816406 C 8.0959531 12.906406 8 13.072953 8 13.251953 L 8 16.748047 C 8 16.928047 8.0959531 17.093594 8.2519531 17.183594 L 11.246094 18.929688 C 11.403094 19.020688 11.596906 19.020688 11.753906 18.929688 L 14.748047 17.183594 C 14.904047 17.093594 15 16.927047 15 16.748047 L 15 13.251953 C 15 13.071953 14.904047 12.906406 14.748047 12.816406 L 11.753906 11.070312 C 11.675406 11.024812 11.58775 11.001953 11.5 11.001953 z M 27.5 11.001953 C 27.412 11.001953 27.324094 11.024312 27.246094 11.070312 L 24.251953 12.816406 C 24.095953 12.906406 24 13.072953 24 13.251953 L 24 16.748047 C 24 16.928047 24.095953 17.093594 24.251953 17.183594 L 27.15625 18.939453 C 27.31225 19.034453 27.508016 19.035359 27.666016 18.943359 L 29.09375 18.113281 C 29.24175 18.028281 29.24275 17.813562 29.09375 17.726562 L 26 15.904297 L 26 14.109375 L 27.5 13.236328 L 29 14.109375 L 29 15.359375 C 29 15.526375 29.140375 15.552094 29.234375 15.496094 C 29.612375 15.274094 30.751953 14.613281 30.751953 14.613281 C 30.904953 14.524281 31 14.359641 31 14.181641 L 31 13.251953 C 31 13.071953 30.904047 12.906406 30.748047 12.816406 L 27.753906 11.070312 C 27.674906 11.024313 27.588 11.001953 27.5 11.001953 z M 3.5 11.003906 C 3.412 11.003906 3.3240937 11.026266 3.2460938 11.072266 L 0.25195312 12.816406 C 0.095953125 12.907406 0 13.073906 0 13.253906 L 0 17.716797 C 0 17.934797 0.23582812 18.069938 0.42382812 17.960938 L 1.7519531 17.1875 C 1.9049531 17.0975 2 16.933859 2 16.755859 L 2 14.113281 L 3.5 13.238281 L 5 14.113281 L 5 16.755859 C 5 16.933859 5.0950469 17.0975 5.2480469 17.1875 L 6.5761719 17.960938 C 6.7641719 18.070938 7 17.934797 7 17.716797 L 7 13.253906 C 7 13.073906 6.9040469 12.907406 6.7480469 12.816406 L 3.7539062 11.072266 C 3.6759063 11.026266 3.588 11.003906 3.5 11.003906 z M 19.5 13.236328 L 21 14.111328 L 21 15 L 21 15.888672 L 19.5 16.763672 L 18 15.888672 L 18 14.111328 L 19.5 13.236328 z M 27.5 14.003906 L 26.642578 14.503906 L 26.642578 15.501953 L 27.5 16 L 28.357422 15.501953 L 28.357422 14.503906 L 27.5 14.003906 z M 15.40625 17.998047 C 15.303375 17.998047 15.199375 18.023219 15.109375 18.074219 L 12.296875 19.699219 C 12.111875 19.801219 12 20.001938 12 20.210938 L 12 23.457031 C 12 23.666031 12.116875 23.86275 12.296875 23.96875 L 13.037109 24.390625 C 13.392109 24.565625 13.522594 24.566406 13.683594 24.566406 C 14.213594 24.566406 14.515625 24.249453 14.515625 23.689453 L 14.515625 20.482422 C 14.515625 20.433422 14.477594 20.398438 14.433594 20.398438 L 14.078125 20.398438 C 14.029125 20.398438 13.994141 20.438422 13.994141 20.482422 L 13.994141 23.689453 C 13.994141 23.932453 13.737359 24.181656 13.318359 23.972656 L 12.548828 23.529297 C 12.523828 23.514297 12.505859 23.484078 12.505859 23.455078 L 12.505859 20.208984 C 12.505859 20.179984 12.519828 20.145859 12.548828 20.130859 L 15.361328 18.509766 C 15.391328 18.494766 15.425219 18.494766 15.449219 18.509766 L 18.263672 20.130859 C 18.292672 20.145859 18.306641 20.174984 18.306641 20.208984 L 18.306641 23.455078 C 18.306641 23.489078 18.287672 23.518203 18.263672 23.533203 L 15.449219 25.160156 C 15.424219 25.175156 15.385328 25.175156 15.361328 25.160156 L 14.642578 24.732422 C 14.623578 24.722422 14.593219 24.716562 14.574219 24.726562 C 14.375219 24.843563 14.335391 24.858875 14.150391 24.921875 C 14.101391 24.936875 14.034781 24.966922 14.175781 25.044922 L 15.109375 25.599609 C 15.202375 25.648609 15.30425 25.677734 15.40625 25.677734 C 15.51325 25.677734 15.617219 25.648703 15.699219 25.595703 L 18.511719 23.96875 C 18.696719 23.86675 18.808594 23.666031 18.808594 23.457031 L 18.808594 20.210938 C 18.808594 20.001938 18.691719 19.806219 18.511719 19.699219 L 15.699219 18.074219 C 15.611719 18.023219 15.509125 17.998047 15.40625 17.998047 z M 19.792969 19.496094 C 19.505969 19.496094 19.253906 19.728156 19.253906 20.035156 C 19.253906 20.332156 19.495969 20.576172 19.792969 20.576172 C 20.089969 20.576172 20.332031 20.332156 20.332031 20.035156 C 20.332031 19.728156 20.084969 19.491094 19.792969 19.496094 z M 19.787109 19.582031 C 20.041109 19.582031 20.246094 19.782156 20.246094 20.035156 C 20.246094 20.283156 20.040109 20.488141 19.787109 20.494141 C 19.538109 20.494141 19.335938 20.288156 19.335938 20.035156 C 19.335938 19.782156 19.539109 19.582031 19.787109 19.582031 z M 19.589844 19.728516 L 19.589844 20.335938 L 19.705078 20.335938 L 19.705078 20.09375 L 19.8125 20.09375 C 19.8565 20.09375 19.866953 20.112484 19.876953 20.146484 C 19.876953 20.151484 19.895391 20.308891 19.900391 20.337891 L 20.025391 20.337891 C 20.011391 20.308891 20.001094 20.225781 19.996094 20.175781 C 19.982094 20.097781 19.977531 20.044062 19.894531 20.039062 C 19.938531 20.024063 20.011719 20.000672 20.011719 19.888672 C 20.011719 19.727672 19.871828 19.728516 19.798828 19.728516 L 19.589844 19.728516 z M 19.705078 19.826172 L 19.802734 19.826172 C 19.832734 19.826172 19.890625 19.825203 19.890625 19.908203 C 19.890625 19.942203 19.875875 19.997094 19.796875 19.996094 L 19.705078 19.996094 L 19.705078 19.826172 z M 16.160156 20.322266 C 15.357156 20.322266 14.880859 20.664516 14.880859 21.228516 C 14.880859 21.846516 15.357953 22.011844 16.126953 22.089844 C 17.046953 22.181844 17.119141 22.314141 17.119141 22.494141 C 17.119141 22.810141 16.865484 22.941406 16.271484 22.941406 C 15.526484 22.941406 15.362594 22.756719 15.308594 22.386719 C 15.303594 22.347719 15.268609 22.318359 15.224609 22.318359 L 14.859375 22.318359 C 14.815375 22.318359 14.777344 22.353344 14.777344 22.402344 C 14.777344 22.874344 15.034625 23.439453 16.265625 23.439453 C 17.168625 23.438453 17.679688 23.088609 17.679688 22.474609 C 17.679688 21.866609 17.270297 21.704891 16.404297 21.587891 C 15.528297 21.470891 15.441406 21.412031 15.441406 21.207031 C 15.441406 21.037031 15.513156 20.814453 16.160156 20.814453 C 16.739156 20.814453 16.954969 20.941078 17.042969 21.330078 C 17.052969 21.369078 17.080141 21.392578 17.119141 21.392578 L 17.484375 21.392578 C 17.508375 21.392578 17.528969 21.383141 17.542969 21.369141 C 17.557969 21.350141 17.5675 21.330641 17.5625 21.306641 C 17.5045 20.634641 17.061156 20.322266 16.160156 20.322266 z"/></svg>

<svg fill="#fff" xmlns="http://www.w3.org/2000/svg" viewBox="0 0 32 32" width="64" height="64"><path d="M21.3 6a.3.3 0 0 0-.3.3v5.497l-1.246-.727a.499.499 0 0 0-.508 0l-2.994 1.746a.504.504 0 0 0-.252.436v3.496c0 .18.096.346.252.436l2.994 1.746a.499.499 0 0 0 .508 0l2.994-1.746a.504.504 0 0 0 .252-.436V7.23a.501.501 0 0 0-.248-.431l-1.303-.758A.295.295 0 0 0 21.301 6zm-9.8 5.002a.506.506 0 0 0-.254.068l-2.994 1.746a.504.504 0 0 0-.252.436v3.496c0 .18.096.346.252.436l2.994 1.746c.157.09.35.09.508 0l2.994-1.746a.504.504 0 0 0 .252-.436v-3.496a.502.502 0 0 0-.252-.436l-2.994-1.746a.506.506 0 0 0-.254-.068zm16 0a.499.499 0 0 0-.254.068l-2.994 1.746a.504.504 0 0 0-.252.436v3.496c0 .18.096.346.252.436l2.904 1.755a.498.498 0 0 0 .51.004l1.428-.83a.224.224 0 0 0 0-.386L26 15.904V14.11l1.5-.873 1.5.873v1.25c0 .167.14.193.234.137a544.12 544.12 0 0 1 1.518-.883.5.5 0 0 0 .248-.431v-.93a.502.502 0 0 0-.252-.436l-2.994-1.746a.502.502 0 0 0-.254-.068zm-24 .002a.499.499 0 0 0-.254.068L.252 12.816a.507.507 0 0 0-.252.438v4.463c0 .218.236.353.424.244l1.328-.773A.501.501 0 0 0 2 16.756v-2.643l1.5-.875 1.5.875v2.643c0 .178.095.341.248.431l1.328.774A.282.282 0 0 0 7 17.717v-4.463a.507.507 0 0 0-.252-.438l-2.994-1.744a.499.499 0 0 0-.254-.068zm16 2.232 1.5.875v1.778l-1.5.875-1.5-.875V14.11l1.5-.875zm8 .768-.857.5v.998L27.5 16l.857-.498v-.998l-.857-.5zm-12.094 3.994a.605.605 0 0 0-.297.076L12.297 19.7a.586.586 0 0 0-.297.512v3.246c0 .209.117.406.297.512l.74.422c.355.175.486.175.647.175.53 0 .832-.317.832-.877v-3.207a.082.082 0 0 0-.082-.084h-.356a.084.084 0 0 0-.084.084v3.207c0 .243-.257.493-.676.284l-.77-.444a.09.09 0 0 1-.042-.074V20.21c0-.029.014-.063.043-.078l2.812-1.621a.091.091 0 0 1 .088 0l2.815 1.62c.029.016.043.045.043.079v3.246a.093.093 0 0 1-.043.078l-2.815 1.627a.091.091 0 0 1-.088 0l-.718-.428c-.02-.01-.05-.015-.069-.005a1.684 1.684 0 0 1-.424.195c-.049.015-.115.045.026.123l.933.555a.642.642 0 0 0 .297.078.545.545 0 0 0 .293-.082l2.813-1.627a.586.586 0 0 0 .297-.512v-3.246a.603.603 0 0 0-.297-.512l-2.813-1.625a.584.584 0 0 0-.293-.076zm4.387 1.498a.54.54 0 1 0 .002 1.08.54.54 0 0 0-.002-1.08zm-.006.086c.254 0 .46.2.46.453a.467.467 0 0 1-.46.46.456.456 0 0 1-.451-.46c0-.253.203-.453.451-.453zm-.197.147v.607h.115v-.242h.108c.044 0 .054.018.064.052 0 .005.018.163.023.192h.125a.715.715 0 0 1-.029-.162c-.014-.078-.018-.132-.101-.137.044-.015.117-.038.117-.15 0-.161-.14-.16-.213-.16h-.21zm.115.097h.098c.03 0 .088 0 .088.082 0 .034-.015.09-.094.088h-.092v-.17zm-3.545.496c-.803 0-1.28.343-1.28.907 0 .618.478.783 1.247.86.92.093.992.225.992.405 0 .316-.254.447-.848.447-.745 0-.908-.184-.962-.554-.005-.04-.04-.069-.084-.069h-.366a.082.082 0 0 0-.082.084c0 .472.258 1.037 1.489 1.037.903 0 1.414-.35 1.414-.964 0-.608-.41-.77-1.276-.887-.876-.117-.963-.176-.963-.381 0-.17.072-.393.72-.393.578 0 .794.127.882.516.01.04.037.063.076.063h.365c.024 0 .045-.01.059-.024.015-.019.024-.038.02-.062-.058-.672-.502-.985-1.403-.985z"/></svg>
